svgs/regular/truck-field-un.svg

<svg xmlns="http://www.w3.org/2000/svg" viewBox="0 0 640 512"><!--! Font Awesome Pro 6.3.0 by @fontawesome - https://fontawesome.com License - https://fontawesome.com/license (Commercial License) Copyright 2023 Fonticons, Inc. --><path d="M80 80c-8.8 0-16 7.2-16 16v32V288v48H76.8c16.6-28.7 47.6-48 83.2-48s66.6 19.3 83.2 48H352V320 224 104 96c0-8.8-7.2-16-16-16H80zM16 336V283.7C6.4 278.2 0 267.8 0 256V160c0-11.8 6.4-22.2 16-27.7V96c0-35.3 28.7-64 64-64H336c29.8 0 54.9 20.4 62 48h37.7c21.7 0 41.4 12.5 50.7 32.2l52.3 111.2 .3 .7h5c35.3 0 64 28.7 64 64v48h8c13.3 0 24 10.7 24 24s-10.7 24-24 24h-8H576c0 53-43 96-96 96s-96-43-96-96H352 256c0 53-43 96-96 96s-96-43-96-96H24 16v-1.4C6.7 379.3 0 370.5 0 360s6.7-19.3 16-22.6V336zm96 48a48 48 0 1 0 96 0 48 48 0 1 0 -96 0zM400 224h85.9l-43-91.4c-1.3-2.8-4.1-4.6-7.2-4.6H400v96zm80 208a48 48 0 1 0 0-96 48 48 0 1 0 0 96zM253.3 135.1l34.7 52V144c0-8.8 7.2-16 16-16s16 7.2 16 16v96c0 7.1-4.6 13.3-11.4 15.3s-14-.6-17.9-6.4l-34.7-52V240c0 8.8-7.2 16-16 16s-16-7.2-16-16V144c0-7.1 4.6-13.3 11.4-15.3s14 .6 17.9 6.4zM128 144v64c0 8.8 7.2 16 16 16s16-7.2 16-16V144c0-8.8 7.2-16 16-16s16 7.2 16 16v64c0 26.5-21.5 48-48 48s-48-21.5-48-48V144c0-8.8 7.2-16 16-16s16 7.2 16 16z"/></svg>

<svg xmlns="http://www.w3.org/2000/svg" viewBox="0 0 640 512"><!--! Font Awesome Pro 6.2.0 by @fontawesome - https://fontawesome.com License - https://fontawesome.com/license (Commercial License) Copyright 2022 Fonticons, Inc. --><path d="M288 187.2V144C288 135.2 295.2 128 304 128C312.8 128 320 135.2 320 144V240C320 247.1 315.4 253.3 308.6 255.3C301.9 257.4 294.6 254.7 290.7 248.9L256 196.8V240C256 248.8 248.8 256 240 256C231.2 256 224 248.8 224 240V144C224 136.9 228.6 130.7 235.4 128.7C242.1 126.6 249.4 129.3 253.3 135.1L288 187.2zM128 208C128 216.8 135.2 224 144 224C152.8 224 160 216.8 160 208V144C160 135.2 167.2 128 176 128C184.8 128 192 135.2 192 144V208C192 234.5 170.5 256 144 256C117.5 256 96 234.5 96 208V144C96 135.2 103.2 128 112 128C120.8 128 128 135.2 128 144V208zM16 283.7C6.435 278.2 0 267.8 0 256V160C0 148.2 6.435 137.8 16 132.3V96C16 60.65 44.65 32 80 32H336C365.8 32 390.9 52.4 397.1 80H435.7C457.4 80 477.1 92.53 486.4 112.2L538.7 223.3L538.1 224H544C579.3 224 608 252.7 608 288V336H616C629.3 336 640 346.7 640 360C640 373.3 629.3 384 616 384H576C576 437 533 480 480 480C426.1 480 384 437 384 384H256C256 437 213 480 160 480C106.1 480 64 437 64 384H16V382.6C6.678 379.3 0 370.5 0 360C0 349.5 6.678 340.7 16 337.4V283.7zM64 96V336H76.84C93.44 307.3 124.5 288 160 288C195.5 288 226.6 307.3 243.2 336H352V96C352 87.16 344.8 80 336 80H80C71.16 80 64 87.16 64 96zM112 384C112 410.5 133.5 432 160 432C186.5 432 208 410.5 208 384C208 357.5 186.5 336 160 336C133.5 336 112 357.5 112 384zM400 224H485.9L442.9 132.6C441.6 129.8 438.8 128 435.7 128H400L400 224zM528 384C528 357.5 506.5 336 480 336C453.5 336 432 357.5 432 384C432 410.5 453.5 432 480 432C506.5 432 528 410.5 528 384z"/></svg>
